src/assets/filled/InfoCircle.svg

<?xml version="1.0" encoding="UTF-8"?>
<svg width="24" height="24" viewBox="0 0 24 24" xmlns="http://www.w3.org/2000/svg">
 <path d="m12 2c-5.51 0-10 4.49-10 10s4.49 10 10 10 10-4.49 10-10-4.49-10-10-10zm-0.75 6c0-0.41 0.34-0.75 0.75-0.75s0.75 0.34 0.75 0.75v5c0 0.41-0.34 0.75-0.75 0.75s-0.75-0.34-0.75-0.75v-5zm1.67 8.38c-0.05 0.13-0.12 0.23-0.21 0.33-0.1 0.09-0.21 0.16-0.33 0.21s-0.25 0.08-0.38 0.08-0.26-0.03-0.38-0.08-0.23-0.12-0.33-0.21c-0.09-0.1-0.16-0.2-0.21-0.33-0.05-0.12-0.08-0.25-0.08-0.38s0.03-0.26 0.08-0.38 0.12-0.23 0.21-0.33c0.1-0.09 0.21-0.16 0.33-0.21 0.24-0.1 0.52-0.1 0.76 0 0.12 0.05 0.23 0.12 0.33 0.21 0.09 0.1 0.16 0.21 0.21 0.33s0.08 0.25 0.08 0.38-0.03 0.26-0.08 0.38z"/>
</svg>

<svg width="24" height="24" viewBox="0 0 24 24"  xmlns="http://www.w3.org/2000/svg">
<path d="M12 2C6.49 2 2 6.49 2 12C2 17.51 6.49 22 12 22C17.51 22 22 17.51 22 12C22 6.49 17.51 2 12 2ZM11.25 8C11.25 7.59 11.59 7.25 12 7.25C12.41 7.25 12.75 7.59 12.75 8V13C12.75 13.41 12.41 13.75 12 13.75C11.59 13.75 11.25 13.41 11.25 13V8ZM12.92 16.38C12.87 16.51 12.8 16.61 12.71 16.71C12.61 16.8 12.5 16.87 12.38 16.92C12.26 16.97 12.13 17 12 17C11.87 17 11.74 16.97 11.62 16.92C11.5 16.87 11.39 16.8 11.29 16.71C11.2 16.61 11.13 16.51 11.08 16.38C11.03 16.26 11 16.13 11 16C11 15.87 11.03 15.74 11.08 15.62C11.13 15.5 11.2 15.39 11.29 15.29C11.39 15.2 11.5 15.13 11.62 15.08C11.86 14.98 12.14 14.98 12.38 15.08C12.5 15.13 12.61 15.2 12.71 15.29C12.8 15.39 12.87 15.5 12.92 15.62C12.97 15.74 13 15.87 13 16C13 16.13 12.97 16.26 12.92 16.38Z" />
</svg>
